public/img/telegram.svg

<svg width="42" height="42" viewBox="0 0 42 42" fill="none" xmlns="http://www.w3.org/2000/svg">
<circle cx="21" cy="21" r="20.5" stroke="white"/>
<path d="M28.1258 12.8616C27.5753 13.0791 11.9498 19.6671 11.9498 19.6671C11.9498 19.6671 11.193 19.9259 11.253 20.4036C11.313 20.8814 11.9303 21.1004 11.9303 21.1004L15.9518 22.4541C15.9518 22.4541 17.166 26.4359 17.4053 27.1919C17.6445 27.9486 17.8358 27.9666 17.8358 27.9666C18.0578 28.0634 18.261 27.9089 18.261 27.9089L20.8598 25.5396L24.9105 28.6454C26.0055 29.1231 26.4038 28.1279 26.4038 28.1279L29.1945 13.8299C29.442 12.7229 28.707 12.6329 28.1258 12.8616Z" stroke="white" stroke-width="2" stroke-miterlimit="10"/>
<path d="M26.1443 16.3231C26.1645 15.9849 25.6928 16.2264 25.6928 16.2264L15.8693 22.3111C15.8693 22.3111 17.166 26.4361 17.4053 27.1929C17.6438 27.9496 17.9708 28.0786 17.9708 28.0786L18.7043 23.4106C18.7043 23.4106 25.647 16.9404 25.9455 16.6614C26.244 16.3831 26.1443 16.3231 26.1443 16.3231Z" fill="white"/>
</svg>

<svg width="42" height="42" fill="none" xmlns="http://www.w3.org/2000/svg"><circle cx="21" cy="21" r="20.5" stroke="#fff"/><path d="M28.126 12.862c-.55.217-16.176 6.805-16.176 6.805s-.757.259-.697.737c.06.477.677.696.677.696l4.022 1.354s1.214 3.982 1.453 4.738c.24.757.43.775.43.775.223.096.426-.058.426-.058l2.599-2.37 4.05 3.106c1.096.478 1.494-.517 1.494-.517l2.79-14.298c.248-1.107-.487-1.197-1.068-.968z" stroke="#fff" stroke-width="2" stroke-miterlimit="10"/><path d="M26.144 16.323c.02-.338-.451-.097-.451-.097l-9.824 6.085 1.536 4.882c.239.757.566.886.566.886l.733-4.668s6.943-6.47 7.241-6.75c.299-.278.2-.338.2-.338z" fill="#fff"/></svg>
